usr/share/icons/biglinux-icons-material-dark/symbolic/status/dropboxstatus-busy2-symbolic.svg

<svg xmlns="http://www.w3.org/2000/svg" viewBox="0 0 22 22">
  <defs id="defs3051">
    <style type="text/css" id="current-color-scheme">
      .ColorScheme-Text {
        color:#232629;
      }
      </style>
  </defs>
 <path style="fill:currentColor;fill-opacity:1;stroke:none" 
     d="M 7.4648438,2.9667969 2.0175781,5.8808594 5.6386719,8.9511719 2.3652344,12.214844 7.828125,15.130859 11,12 l 3.123047,2.669922 5.275391,-3.009766 c -0.0047,0.0035 -3.419922,-2.9667966 -3.419922,-2.9667966 L 18.996094,6.0351562 14.5,3 10.992188,5.9921875 Z M 7.2675781,4.0664062 10.0625,6.5058594 6.578125,8.3925781 3.71875,6.0429688 Z M 14.460937,4.0917969 17.587891,6.1816406 15.083984,8.2089844 11.894531,6.484375 Z M 11,7 14.486328,9 11,11 7.5136719,9 Z M 6.4257812,9.5253906 10.078125,11.501953 7.6289062,13.890625 4.015625,11.894531 Z m 9.1093748,0.021484 2.310547,1.984375 -3.673828,1.941406 -2.236328,-1.978515 z M 16,13.636719 15,14.222656 15,16.705078 11,19 7,16.705078 7,14.742188 6,14.207031 6,17.294922 11,20 16,17.294922 Z"
     class="ColorScheme-Text"
     /> 
</svg>

<svg xmlns="http://www.w3.org/2000/svg" viewBox="0 0 22 22">
<defs id="defs3051">
<style id="current-color-scheme" type="text/css">
.ColorScheme-Contrast{color:#232629}
</style>
</defs>
<path d="M7.465 2.967 2.018 5.88l3.62 3.07-3.273 3.264 5.463 2.916L11 12l3.123 2.67 5.275-3.01c-.004.004-3.42-2.967-3.42-2.967l3.018-2.658L14.5 3l-3.508 2.992Zm-.197 1.1 2.795 2.439-3.485 1.887-2.86-2.35Zm7.193.025 3.127 2.09-2.504 2.027-3.19-1.725ZM11 7l3.486 2L11 11 7.514 9ZM6.426 9.525l3.652 1.977-2.45 2.389-3.612-1.996Zm9.11.022 2.31 1.984-3.674 1.942-2.236-1.979zm.464 4.09-1 .586v2.482L11 19l-4-2.295v-1.963l-1-.535v3.088L11 20l5-2.705Z" class="ColorScheme-Contrast" style="fill:currentColor;fill-opacity:1;stroke:none"/>
</svg>
